X:57
T:Maraichine, La
R:dance
H:from Guy Crayford - originally in D
M:C|
L:1/4
N:see also: OB 3.4
K:Gmaj
Gd dB|dc/2B/2 AA|Gd dB|d2 A2::\
A>B cB|AB/2A/2 GG|Ad cB|A2 G2:|

